Numix/64/status/weather-showers.svg

<?xml version="1.0" encoding="UTF-8" standalone="yes"?>
<svg xmlns="http://www.w3.org/2000/svg" xmlns:xlink="http://www.w3.org/1999/xlink" width="64px" height="64px" viewBox="0 0 48 48" version="1.1">
  <defs>
    <clipPath id="clip1">
      <rect width="48" height="48"/>
    </clipPath>
    <g id="surface7" clip-path="url(#clip1)">
      <path style=" stroke:none;fill-rule:nonzero;fill:rgb(92.54902%,92.54902%,92.54902%);fill-opacity:1;" d="M 12.300781 27.289062 C 10.515625 28.167969 6.210938 31.398438 7.125 32.613281 C 8.039062 33.824219 11.433594 29.15625 12.300781 27.289062 Z M 39.5 27.867188 C 37.714844 28.746094 33.398438 31.96875 34.3125 33.179688 C 35.226562 34.390625 38.632812 29.734375 39.5 27.867188 Z M 32.632812 28.144531 C 30.847656 29.023438 26.53125 32.257812 27.445312 33.46875 C 28.359375 34.679688 31.765625 30.011719 32.632812 28.144531 Z M 26.449219 29.035156 C 24.660156 29.914062 20.347656 33.148438 21.261719 34.359375 C 22.171875 35.574219 25.578125 30.902344 26.449219 29.035156 Z M 19.148438 29.851562 C 17.363281 30.726562 13.046875 33.960938 13.960938 35.171875 C 14.875 36.386719 18.28125 31.714844 19.148438 29.851562 Z M 12.511719 33.882812 C 10.726562 34.757812 6.410156 37.992188 7.324219 39.203125 C 8.238281 40.417969 11.644531 35.746094 12.511719 33.882812 Z M 32.308594 34.425781 C 30.519531 35.304688 26.207031 38.539062 27.121094 39.75 C 28.03125 40.960938 31.4375 36.292969 32.308594 34.425781 Z M 25.21875 35.917969 C 23.433594 36.796875 19.117188 40.03125 20.03125 41.242188 C 20.945312 42.453125 24.351562 37.785156 25.21875 35.917969 Z M 35.878906 37 C 34.089844 37.878906 29.777344 41.109375 30.691406 42.324219 C 31.601562 43.535156 35.007812 38.867188 35.878906 37 Z M 18.320312 37.476562 C 16.535156 38.355469 12.21875 41.589844 13.132812 42.800781 C 14.046875 44.015625 17.453125 39.34375 18.320312 37.476562 Z M 18.320312 37.476562 "/>
    </g>
  </defs>
  <g id="surface1">
    <path style=" stroke:none;fill-rule:nonzero;fill:rgb(92.54902%,92.54902%,92.54902%);fill-opacity:1;" d="M 17.476562 10 C 17.128906 10 16.753906 10.015625 16.375 10.066406 C 10.316406 10.84375 10.5 16.042969 10.5 16.042969 C 8.019531 16.464844 6 18.628906 6 20.894531 C 6 23.160156 8.585938 25.164062 10.757812 25.746094 C 12.046875 26.09375 13.742188 25.746094 13.742188 25.746094 C 14.507812 27.097656 17.039062 28 18.800781 28 C 21.675781 28 24.632812 27.046875 25.3125 25.746094 C 25.3125 25.746094 37.222656 26.699219 39.695312 25.746094 C 43.292969 24.359375 42.171875 20.023438 39.777344 18.558594 C 37.382812 17.09375 34.253906 18.117188 34.253906 18.117188 C 34.253906 18.117188 34.238281 15.132812 30.851562 13.707031 C 27.46875 12.28125 24.613281 15.4375 24.613281 15.4375 C 24.613281 15.4375 22.714844 10.03125 17.476562 10 Z M 17.476562 10 "/>
    <use xlink:href="#surface7"/>
  </g>
</svg>

<svg xmlns="http://www.w3.org/2000/svg" xmlns:xlink="http://www.w3.org/1999/xlink" width="64" height="64" viewBox="0 0 48 48">
 <defs>
  <g id="surface7">
   <path d="m 12.301 27.29 c -1.785 0.879 -6.09 4.109 -5.176 5.324 c 0.914 1.211 4.309 -3.457 5.176 -5.324 m 27.2 0.578 c -1.785 0.879 -6.102 4.102 -5.188 5.313 c 0.914 1.211 4.32 -3.445 5.188 -5.313 m -6.867 0.277 c -1.785 0.879 -6.102 4.113 -5.188 5.324 c 0.914 1.211 4.32 -3.457 5.188 -5.324 m -6.184 0.891 c -1.789 0.879 -6.102 4.113 -5.188 5.324 c 0.91 1.215 4.316 -3.457 5.188 -5.324 m -7.301 0.816 c -1.785 0.875 -6.102 4.109 -5.187 5.32 c 0.914 1.215 4.32 -3.457 5.187 -5.32 m -6.637 4.03 c -1.785 0.875 -6.102 4.109 -5.187 5.32 c 0.914 1.215 4.32 -3.457 5.187 -5.32 m 19.797 0.543 c -1.789 0.879 -6.102 4.113 -5.188 5.324 c 0.91 1.211 4.316 -3.457 5.188 -5.324 m -7.09 1.492 c -1.785 0.879 -6.102 4.113 -5.188 5.324 c 0.914 1.211 4.32 -3.457 5.188 -5.324 m 10.66 1.082 c -1.789 0.879 -6.102 4.109 -5.188 5.324 c 0.91 1.211 4.316 -3.457 5.188 -5.324 m -17.559 0.477 c -1.785 0.879 -6.102 4.113 -5.188 5.324 c 0.914 1.215 4.32 -3.457 5.188 -5.324 m 0 0" style="fill:#ececec;fill-opacity:1;stroke:none;fill-rule:nonzero"/>
  </g>
 </defs>
 <g>
  <path d="m 17.477 10 c -0.348 0 -0.723 0.016 -1.102 0.066 c -6.06 0.777 -5.875 5.977 -5.875 5.977 c -2.48 0.422 -4.5 2.586 -4.5 4.852 c 0 2.266 2.586 4.27 4.758 4.852 c 1.289 0.348 2.984 0 2.984 0 c 0.766 1.352 3.297 2.254 5.059 2.254 c 2.875 0 5.832 -0.953 6.512 -2.254 c 0 0 11.91 0.953 14.383 0 c 3.598 -1.387 2.477 -5.723 0.082 -7.188 c -2.395 -1.465 -5.523 -0.441 -5.523 -0.441 c 0 0 -0.016 -2.984 -3.402 -4.41 c -3.383 -1.426 -6.238 1.73 -6.238 1.73 c 0 0 -1.898 -5.406 -7.137 -5.438 m 0 0" style="fill:#ececec;fill-opacity:1;stroke:none;fill-rule:nonzero"/>
  <use xlink:href="#surface7"/>
 </g>
</svg>
